PortableApps/LibreOfficePortable/App/libreoffice/help/media/icon-themes/cmd/lc_cleararrowprecedents.svg

<svg viewBox="0 0 24 24" xmlns="http://www.w3.org/2000/svg"><path d="m2 3v5h7v-5zm1 1h5v3h-5zm-1 6v5h7v-5zm13 0v2.015625c.02676-.0025.05106-.01526.07813-.01563.270212-.0031.530175.103285.720703.294922l.201167.20313v-1.498047h5v1.023438c.206784.0247.40992.09752.572266.251953l.427734.408203v-2.683594zm-12 1h5v3h-5zm-1 6v5h7v-5zm1 1h5v3h-5z" fill="#808080"/><path d="m3 4v3h5v-3zm0 7v3h5v-3zm13 0v1.498047l1.494141 1.501953h1.015625l1.65625-1.697266c.225865-.232239.535012-.315016.833984-.279296v-1.023438zm-13 7v3h5v-3z" fill="#fff"/><path d="m9.4941406 4.9941406c-.4494023.0000914-.6705869.5468399-.3476562.859375l3.4999996 3.5-1.646484 1.6464844h4v-4l-1.646484 1.6464844-3.5000004-3.5c-.0942073-.0973688-.2238918-.1523438-.359375-.1523438zm1.5058594 9.0058594 1.007812 1.007812c-.007318-.273941.08969-.548471.304688-.751953l.269531-.255859zm1.445312 1.847656-3.2988276 3.298828c-.3229307.312535-.1017461.859284.3476562.859375.1354831 0 .2651676-.05497.359375-.152343l3.2910154-3.291016z" fill="#4d82b8"/><path d="m23 20.944338-2.895447-2.946153 2.7861-3.086414-2.008392-1.911762-2.867282 2.941173-2.925406-2.941173-2.089573 1.98208 2.925403 3.003525-2.925403 2.955562 2.089573 2.058824 2.922011-3.088233 2.928799 3.088233z" fill="#e68497"/></svg>

<svg viewBox="0 0 24 24" xmlns="http://www.w3.org/2000/svg">
  <path
     style="fill:#808080"
     d="M 2,3 V 8 H 9 V 3 Z M 3,4 H 8 V 7 H 3 Z m -1,6 v 5 h 7 v -5 z m 13,0 v 2.015625 c 0.02676,-0.0025 0.05106,-0.01526 0.07813,-0.01563 0.270212,-0.0031 0.530175,0.103285 0.720703,0.294922 L 16,12.498047 V 11 h 5 v 1.023438 c 0.206784,0.0247 0.40992,0.09752 0.572266,0.251953 L 22,12.683594 V 10 Z M 3,11 h 5 v 3 H 3 Z m -1,6 v 5 h 7 v -5 z m 1,1 h 5 v 3 H 3 Z"
     />
  <path
     style="fill:#ffffff"
     d="M 3 4 L 3 7 L 8 7 L 8 4 L 3 4 z M 3 11 L 3 14 L 8 14 L 8 11 L 3 11 z M 16 11 L 16 12.498047 L 17.494141 14 L 18.509766 14 L 20.166016 12.302734 C 20.391881 12.070495 20.701028 11.987718 21 12.023438 L 21 11 L 16 11 z M 3 18 L 3 21 L 8 21 L 8 18 L 3 18 z "/>
  <path
     style="fill:#4d82b8"
     d="M 9.4941406 4.9941406 C 9.0447383 4.994232 8.8235537 5.5409805 9.1464844 5.8535156 L 12.646484 9.3535156 L 11 11 L 15 11 L 15 7 L 13.353516 8.6464844 L 9.8535156 5.1464844 C 9.7593083 5.0491156 9.6296238 4.9941406 9.4941406 4.9941406 z M 11 14 L 12.007812 15.007812 C 12.000494 14.733871 12.097502 14.459341 12.3125 14.255859 L 12.582031 14 L 11 14 z M 12.445312 15.847656 L 9.1464844 19.146484 C 8.8235537 19.459019 9.0447383 20.005768 9.4941406 20.005859 C 9.6296237 20.005859 9.7593082 19.950889 9.8535156 19.853516 L 13.144531 16.5625 L 12.445312 15.847656 z " />
  <path
     style="fill:#e68497"
     d="m 23,20.944338 -2.895447,-2.946153 2.7861,-3.086414 -2.008392,-1.911762 -2.867282,2.941173 L 15.089573,13.000009 13,14.982089 15.925403,17.985614 13,20.941176 15.089573,23 18.011584,19.911767 20.940383,23 Z" />
</svg>
